X:1
T:Li enseignement / De touz les biens / Ecce tu pulchra es amica mea
T:Li enseignement / De touz les biens / Ecce tu pulchra es amica mea
T:Guillaume de Machaut
T:Zwick, G. (1948). Deux motets inédits de Philippe de Vitry et de Guillaume de Machaut. Revue de Musicologie, 30(85/88), 28–57.
T:© 2017 by Tom Smekens - Licensed under Creative Commons Zero
T:© 2017 by Tom Smekens - Licensed under Creative Commons Zero
T:© 2017 by Tom Smekens - Licensed under Creative Commons Zero
T:© 2017 by Tom Smekens - Licensed under Creative Commons Zero
T:© 2017 by Tom Smekens - Licensed under Creative Commons Zero
T:© 2017 by Tom Smekens - Licensed under Creative Commons Zero
T:© 2017 by Tom Smekens - Licensed under Creative Commons Zero
C:Guillaume de Machaut
Z:© 2017 by Tom Smekens - Licensed under Creative Commons Zero
%%score [ ( 1 2 ) 3 4 ]
L:1/8
M:9/4
K:C
V:1 treble-8 nm="[Triplum]"
V:2 treble-8 
V:3 treble-8 nm="[Motetus]"
V:4 bass nm="Tenor"
V:1
"_I" z2 z2 d2 d6 e6 | d6 c2 dc cB d4 A2 | B4 G2 d4 A2 c4 B2 | c6 z6 c3 f2 e | %4
w: Li en- *|* sei- gne- * * * * ment|* de * * cha- *|ton le sens qui|
 d2 e g2 g d6 d2 d2 d2 | e d c2 d2 e2 c4 e6 | z c z e e2 c2 z c z e d2 e2 f2 | g4 g2 a2 ag af a6 | %8
w: fut en sa- le- mon, la lar- ges-|se la cour- toy- si- * e|* * * * * * qu~a- li- xan-|dre hot en sa * * * vi-|
 d16- x2 ||"^II" z2 z2 d2 e6 g6 | e6 e2 fe fd f4 c2 | a4 d2 f4 c2 d4 c2 | B6 z6 e3 d2 c | %13
w: e|ne pue- *|* ent es- * * * tre com-|* * * * pa- *|ré a cel- le|
 d2 e f2 e d6 d2 d2 A2 | d d d2 d2 A2 e4 g6 | z c z e f2 c2 z c z f c2 d2 e2 | %16
w: qui tou- te bon- té ha en li|de ce ha le nom. * *|* * * * * * Et * a|
 ^f4 f2 g2 =fe fe d6 | a16- x2 ||"^III" z2 z2 A2 c6 B6 | A6 c2 dc cB d4 B2 | c4 A2 B4 d2 A4 G2 | %21
w: ses eu- vres le * * * voit|on.|pour ce *|* ly * * * * ay *|* * je tout don- né|
 A6 z6 a3 a2 g | f2 e d2 e c6 c2 c2 B2 | A A B2 c2 B2 A4 d6 | z A z e e2 A2 z B z d e2 d2 c2 | %25
w: * mon cuer, mon|corps, tout mon ay- é quar beau- té|est en li en clo- * se|* * * * * * tout au- tres-|
 d4 d2 A2 BA AG A6 | c16- x2 ||"^IV" z2 z2 d2 c6 B6 | c6 g2 ag gf a4 e2 | e4 c2 f4 c2 d4 d2 | %30
w: si com- me la * * * ro-|se|est sur *|* tou- * * * * * *|tes les fleurs pri- sé- e|
 A6 z6 a3 e2 f | g2 f g2 a g4 g2 g2 a2 g2 | f e d2 c2 B2 A4 c6 | z A z d d2 A2 z A z c d2 c2 B2 | %34
w: * doit es- tre|ma dame en- sei- gni- e sur tou- tes|au- tres sou- ve- rai- * ne|* * * * * * a- mour la|
 c4 c2 g2 fe fd f6 | a16- x2 ||"^V" z2 z2 d2 e6 d6 | e6 B2 cB cA c4 g2 | f4 e2 d4 c2 e4 e2 | %39
w: tient en sa de- * * * main-|ne|qui nuit *|* et jour * * * * bel|la * * * doc- tri-|
 A6 z6 e3 d2 e | f2 e d2 e c4 c2 f2 c2 d2 | c d e2 c2!ped! d2 e4 d6!ped-up! | %42
w: ne loi- au- té|toute a li s~en- cli- ne dont ne li|doit nuls de- vé- er * *|
 z c z e e2 c2 z c z e e2 d2 c2 | a6 g2 fe fd e6 | f16- x2 |] %45
w: * * * * * * d~a- mours la|cou- ronne a * * * por-|ter.|
V:2
 x18 | x18 | x18 | x18 | x6 x4 d2 x6 | x18 | x18 | x18 | x18 || x18 | x18 | x18 | x18 | %13
 x6 x4 d2 x6 | x18 | x18 | x18 | x18 || x18 | x18 | x18 | x18 | x6 x4 d2 x6 | x18 | x18 | x18 | %26
 x18 || x18 | x18 | x18 | x18 | x18 | x18 | x18 | x18 | x18 || x18 | x18 | x18 | x18 | x18 | x18 | %42
 x18 | x18 | x18 |] %45
V:3
 d6 B6 ^c6 | d2 dc cB A4 G2 A6 | d2 c4 d6 e2 fe ed | c6- c6 z6 | z6 B6- B6 | %5
w: De * *|* touz * * * * les biens|qu~a- mours ha a don- * * *|ner *|ma *|
!ped! (c6 A4)!ped-up! G2 A6 | e2 c2 z c z e e2 c2 f2 e2 d2 | c6- c4 d2 c2 BA BA | G12 z6 || %9
w: dame * en est|* * * * * * tou- te la|mieux * par- ti- * * * *|e|
 d6 B6 d6 | e2 ed ec B4 A2 c6 | e2 d4 c6 g2 fe fd | e6- e6 z6 | z6 A6- A6 | %14
w: ell * *|* * * * * a ma- niere|et sens pour se gar- * * *|der *|et *|
!ped! (f6 e4)!ped-up! g2 c6 | f2 c2 z c z e f2 c2 g2 f2 e2 | d6- d4 d2 g2 ag af | e12 z6 || %18
w: s'a * re- gart|* * * * * * a- mou- reux|sans * en- vi- * * * *|e.|
 c6 e6 d6 | e2 de cB A4 B2 G6 | d2 c4 g6 d2 cB cA | d6- d6 z6 | z6 A6- A6 | %23
w: pour * *|cuer * * * * * d~a- mant|per- cier sans en- du- * * *|rer. *|Et *|
!ped! (e6 d4)!ped-up! e2 f6 | e2 B2 z B z e e2 B2 g2 f2 e2 | d6- d4 f2 a2 ag af | e12 z6 || %27
w: quant * en li|* * * * * * ha si tres|grant * mes- tri- * * * *|e.|
 f6 e6 d6 | c2 de fe d4 c2 e6 | e2 A4 c6 g2 gd dc | e6- e6 z6 | z6 e6- e6 | %32
w: Je * *|* * * * * la doi bien|et cre mir et a- * * *|mer *|quar *|
!ped! (d6 f4)!ped-up! f2 c6 | d2 A2 z A z d d2 A2 f2 e2 d2 | c6- c4 d2 d2 cB cA | d12 z6 || %36
w: sans * tre- mir|* * * * * * da- me mort|je * chie- ri- * * * *|e|
 a6 g6 f6 | e2 ed ec d4 c2 e6 | d2 c4 g6 e2 ed ec | e6- e6 z6 | z6 a6- a6 | %41
w: et * *|si [? * * ?] ier es- toit,|de ma par- ti- * * * *|e *|ne *|
!ped! (e6 g4)!ped-up! a2 g6 | e2 c2 z c z e e2 c2 e2 f2 e2 | d6- d4 c2 B2 AB cB | c12 z6 |] %45
w: me * pou- roit|* * * * * * a- mours mieux|as- * * se- * * * *|ner.|
V:4
"_Ecce tu pulchra es amica mea" z12 z6 | D,6 F,6 z2 z2 D,2 | E,6 z2 z2 D,2 C,6 | F,16- x2 | %4
 G,16- x2 | z12 A,6 | A,16- x2 | z12 F,6 | G,16- x2 || z12 z6 | A,6 G,6 z2 z2 F,2 | %11
 D,6 z2 z2 F,2 D,6 | E,16- x2 | D,16- x2 | z12 C,6 | F,16- x2 | z12 A,6 | A,16- x2 || z12 z6 | %19
 A,6 F,6 z2 z2 G,2 | A,6 z2 z2 G,2 F,6 | D,16- x2 | F,16- x2 | z12 D,6 | E,16- x2 | z12 D,6 | %26
 C,16- x2 || z12 z6 | F,6 G,6 z2 z2 A,2 | A,6 z2 z2 F,2 G,6 | A,16- x2 | G,16- x2 | z12 F,6 | %33
 D,16- x2 | z12 F,6 | D,16- x2 || z12 z6 | E,6 D,6 z2 z2 C,2 | F,6 z2 z2 G,2 A,6 | A,16- x2 | %40
 F,16- x2 | z12 G,6 | A,16- x2 | z12 G,6 | F,16- x2 |] %45

